!!!COM: Anon.
!!!OTL: Si Deus Est Animus
!!!SCA: Folio 352
!!!YOR: from 'Thirty-Five Conductus for Two and Three Voices', p.120
!!!YOR: edited by Janet Knapp, Collegium Musicum No. 6, Yale University (1965)
!!!YOR: from the School of Notre Dame; circa 1170-1240
!!!YOO: Yale University
!!!YOY: 1965
**kern	**kern
*M6/8	*M6/8
=1	=1
4.d	4.A
4.c	4.c
=2	=2
8B-	4c
8A	.
8G	8d
4.F	8c
.	8c
.	8B-
=3	=3
4.c	8A
.	8G
.	8F
8d	4.G
8c	.
8B-	.
=4	=4
4.A	4.A
4.r	4.r
=5	=5
4.G	4.B-
8F	4c
8E	.
8D	8d
=6	=6
4.C	4.c
4.D	4d
.	8c
=7	=7
4F	4B-
8G	8A
4F	8B-
.	8A
8E	8G
=8	=8
4.D	4.A
4.r	4.r
=9	=9
4.d	4.G
4.c	8A
.	8G
.	8F
=10	=10
8B-	4.G
8A	.
8G	.
4.F	4A
.	8B-
=11	=11
4.c	8A
.	8G
.	8F
8d	4.G
8c	.
8B-	.
=12	=12
4.A	4.A
4.r	4A
.	8B-
=13	=13
4.G	4.d
8F	8c
8E	8B-
8D	8A
=14	=14
4.C	4.c
4.D	8d
.	8d
.	8c
=15	=15
4F	8B-
.	8A
8G	8G
4F	4.c
8E	.
=16	=16
4.D	4.d
4.r	4d
.	8e
=17	=17
4.A	4.c
4A	8B-
.	8A
8B-	8G
=18	=18
8c	4.F
8c	.
8B-	.
4A	4.G
8G	.
=19	=19
4F	8A
.	8B-
8E	8A
4.G	8G
.	8F
.	8E
=20	=20
4.A	4.D
4A	4.r
8B-	.
=21	=21
4d	4G
8c	8F
4A	4A
8B-	8B-
=22	=22
4G	4d
8G	8c
4.A	8B-
.	8A
.	8G
=23	=23
4c	4F
8B-	8G
4A	8A
.	8B-
8G	8c
=24	=24
4F	8B-
.	8A
8E	8G
4D	4A
8r	8r
=25	=25
4F	4c
8G	8B-
4A	4A
8G	8G
=26	=26
8F	8F
8E	8E
8D	8F
4C	4G
8r	8r
=27	=27
4D	4A
8E	8B-
4F	4A
8G	8G
=28	=28
8F	8B-
8E	8A
8D	8G
4F	4F
8r	8r
=29	=29
4B-	4G
8A	8F
4G	4G
8c	8A
=30	=30
8B-	8B-
8A	8A
8G	8B-
4F	4c
8G	8B-
=31	=31
4A	4A
8B-	8G
4A	4F
8G	8E
=32	=32
4.F	4.F
4.r	4.r
=33	=33
4G	4G
8A	8F
4G	4G
8F	8A
=34	=34
4F	8B-
.	8A
8E	8G
4D	4A
8r	8r
=35	=35
4F	4c
8G	8B-
4A	4A
8G	8G
=36	=36
8F	8F
8E	8E
8D	8F
4C	4G
8r	8r
=37	=37
4C	4A
8D	8G
4F	4F
8D	8A
=38	=38
8A	4.D
8A	.
8G	.
4F	8B-
.	8A
8E	8B-
=39	=39
4.D	8B-
.	8A
.	8G
4D;	8G
.	4A;
8r	.
==	==
*-	*-
!!!ENC: David Huron
!!!YEC: Copyright 1987, David Huron
!!!EEV: 1.0
